images/customers/Chart.svg

<svg width="72" height="72" viewBox="0 0 72 72" fill="none" xmlns="http://www.w3.org/2000/svg">
<g filter="url(#filter0_b_42_34)">
<path d="M37.1403 7.34107L16.6853 13.1889C9.23117 15.3199 6.13935 21.033 8.13649 28.9854L13.6117 50.787C15.6088 58.7394 20.9637 62.0376 28.4178 59.9066L48.8729 54.0588C56.327 51.9277 59.3994 46.2202 57.4022 38.2678L51.927 16.4662C49.9299 8.51386 44.5945 5.21004 37.1403 7.34107Z" fill="url(#paint0_linear_42_34)"/>
</g>
<g opacity="0.5" filter="url(#filter1_f_42_34)">
<path d="M47.2195 35.9124L43.5049 20.8997C42.1575 15.4542 38.7853 13.0126 34.3514 14.2615L19.334 18.4913C14.8273 19.7607 13.0822 23.6437 14.4296 29.0892L18.1442 44.1019C19.5133 49.6351 22.8051 52.0036 27.3118 50.7343L42.3292 46.5044C46.7632 45.2555 48.5885 41.4456 47.2195 35.9124Z" fill="#11B5E4"/>
</g>
<g filter="url(#filter2_b_42_34)">
<mask id="path-3-outside-1_42_34" maskUnits="userSpaceOnUse" x="20.6602" y="16.626" width="48" height="51" fill="black">
<rect fill="white" x="20.6602" y="16.626" width="48" height="51"/>
<path d="M54.9231 17.626H33.7484C26.0321 17.626 21.6602 22.2906 21.6602 30.5235V53.0942C21.6602 61.3271 26.0321 65.9917 33.7484 65.9917H54.9231C62.6394 65.9917 66.9912 61.3271 66.9912 53.0942V30.5235C66.9912 22.2906 62.6394 17.626 54.9231 17.626"/>
</mask>
<path d="M54.9231 17.626H33.7484C26.0321 17.626 21.6602 22.2906 21.6602 30.5235V53.0942C21.6602 61.3271 26.0321 65.9917 33.7484 65.9917H54.9231C62.6394 65.9917 66.9912 61.3271 66.9912 53.0942V30.5235C66.9912 22.2906 62.6394 17.626 54.9231 17.626" fill="#00ACDD"/>
<path d="M54.9231 18.626C55.4754 18.626 55.9231 18.1783 55.9231 17.626C55.9231 17.0737 55.4754 16.626 54.9231 16.626V18.626ZM54.9231 16.626C54.3708 16.626 53.9231 17.0737 53.9231 17.626C53.9231 18.1783 54.3708 18.626 54.9231 18.626V16.626ZM54.9231 16.626H33.7484V18.626H54.9231V16.626ZM33.7484 16.626C29.6858 16.626 26.3718 17.8595 24.081 20.3035C21.7993 22.7381 20.6602 26.2381 20.6602 30.5235H22.6602C22.6602 26.576 23.707 23.6272 25.5403 21.6712C27.3646 19.7248 30.0947 18.626 33.7484 18.626V16.626ZM20.6602 30.5235V53.0942H22.6602V30.5235H20.6602ZM20.6602 53.0942C20.6602 57.3796 21.7993 60.8796 24.081 63.3141C26.3718 65.7582 29.6858 66.9917 33.7484 66.9917V64.9917C30.0947 64.9917 27.3646 63.8929 25.5403 61.9464C23.707 59.9904 22.6602 57.0417 22.6602 53.0942H20.6602ZM33.7484 66.9917H54.9231V64.9917H33.7484V66.9917ZM54.9231 66.9917C58.9858 66.9917 62.2954 65.7581 64.5812 63.3132C66.8578 60.8783 67.9912 57.3784 67.9912 53.0942H65.9912C65.9912 57.0428 64.9488 59.9917 63.1203 61.9473C61.3012 63.893 58.5767 64.9917 54.9231 64.9917V66.9917ZM67.9912 53.0942V30.5235H65.9912V53.0942H67.9912ZM67.9912 30.5235C67.9912 26.2392 66.8578 22.7393 64.5812 20.3044C62.2954 17.8596 58.9858 16.626 54.9231 16.626V18.626C58.5767 18.626 61.3012 19.7247 63.1203 21.6703C64.9488 23.626 65.9912 26.5748 65.9912 30.5235H67.9912Z" fill="url(#paint1_linear_42_34)" mask="url(#path-3-outside-1_42_34)"/>
</g>
<g filter="url(#filter3_bd_42_34)">
<mask id="path-5-inside-2_42_34" fill="white">
<path fill-rule="evenodd" clip-rule="evenodd" d="M44.4047 27.5144C43.3772 27.5144 42.531 28.4172 42.531 29.535V54.0833C42.531 55.1796 43.3772 56.0824 44.4047 56.0824C45.4524 56.0824 46.2985 55.1796 46.2985 54.0833V29.535C46.2985 28.4172 45.4524 27.5144 44.4047 27.5144ZM33.8278 35.4471C32.8003 35.4471 31.9541 36.3499 31.9541 37.4677V54.084C31.9541 55.1803 32.8003 56.0831 33.8278 56.0831C34.8754 56.0831 35.7216 55.1803 35.7216 54.084V37.4677C35.7216 36.3499 34.8754 35.4471 33.8278 35.4471ZM52.9478 46.2378C52.9478 45.1201 53.794 44.2172 54.8416 44.2172C55.8691 44.2172 56.7153 45.1201 56.7153 46.2378V54.0838C56.7153 55.1801 55.8691 56.083 54.8215 56.083C53.794 56.083 52.9478 55.1801 52.9478 54.0838V46.2378Z"/>
</mask>
<path fill-rule="evenodd" clip-rule="evenodd" d="M44.4047 27.5144C43.3772 27.5144 42.531 28.4172 42.531 29.535V54.0833C42.531 55.1796 43.3772 56.0824 44.4047 56.0824C45.4524 56.0824 46.2985 55.1796 46.2985 54.0833V29.535C46.2985 28.4172 45.4524 27.5144 44.4047 27.5144ZM33.8278 35.4471C32.8003 35.4471 31.9541 36.3499 31.9541 37.4677V54.084C31.9541 55.1803 32.8003 56.0831 33.8278 56.0831C34.8754 56.0831 35.7216 55.1803 35.7216 54.084V37.4677C35.7216 36.3499 34.8754 35.4471 33.8278 35.4471ZM52.9478 46.2378C52.9478 45.1201 53.794 44.2172 54.8416 44.2172C55.8691 44.2172 56.7153 45.1201 56.7153 46.2378V54.0838C56.7153 55.1801 55.8691 56.083 54.8215 56.083C53.794 56.083 52.9478 55.1801 52.9478 54.0838V46.2378Z" fill="url(#paint2_linear_42_34)"/>
<path d="M42.931 29.535C42.931 28.6105 43.6248 27.9144 44.4047 27.9144V27.1144C43.1296 27.1144 42.131 28.224 42.131 29.535H42.931ZM42.931 54.0833V29.535H42.131V54.0833H42.931ZM44.4047 55.6824C43.6221 55.6824 42.931 54.9835 42.931 54.0833H42.131C42.131 55.3757 43.1323 56.4824 44.4047 56.4824V55.6824ZM45.8985 54.0833C45.8985 54.9806 45.2101 55.6824 44.4047 55.6824V56.4824C45.6946 56.4824 46.6985 55.3786 46.6985 54.0833H45.8985ZM45.8985 29.535V54.0833H46.6985V29.535H45.8985ZM44.4047 27.9144C45.2074 27.9144 45.8985 28.6133 45.8985 29.535H46.6985C46.6985 28.2211 45.6973 27.1144 44.4047 27.1144V27.9144ZM32.3541 37.4677C32.3541 36.5432 33.0479 35.8471 33.8278 35.8471V35.0471C32.5527 35.0471 31.5541 36.1567 31.5541 37.4677H32.3541ZM32.3541 54.084V37.4677H31.5541V54.084H32.3541ZM33.8278 55.6831C33.0452 55.6831 32.3541 54.9842 32.3541 54.084H31.5541C31.5541 55.3764 32.5553 56.4831 33.8278 56.4831V55.6831ZM35.3216 54.084C35.3216 54.9813 34.6332 55.6831 33.8278 55.6831V56.4831C35.1177 56.4831 36.1216 55.3793 36.1216 54.084H35.3216ZM35.3216 37.4677V54.084H36.1216V37.4677H35.3216ZM33.8278 35.8471C34.6305 35.8471 35.3216 36.546 35.3216 37.4677H36.1216C36.1216 36.1538 35.1204 35.0471 33.8278 35.0471V35.8471ZM54.8416 43.8172C53.549 43.8172 52.5478 44.924 52.5478 46.2378H53.3478C53.3478 45.3162 54.0389 44.6172 54.8416 44.6172V43.8172ZM57.1153 46.2378C57.1153 44.9268 56.1167 43.8172 54.8416 43.8172V44.6172C55.6215 44.6172 56.3153 45.3133 56.3153 46.2378H57.1153ZM57.1153 54.0838V46.2378H56.3153V54.0838H57.1153ZM54.8215 56.483C56.1114 56.483 57.1153 55.3791 57.1153 54.0838H56.3153C56.3153 54.9812 55.6269 55.683 54.8215 55.683V56.483ZM52.5478 54.0838C52.5478 55.3762 53.549 56.483 54.8215 56.483V55.683C54.0389 55.683 53.3478 54.984 53.3478 54.0838H52.5478ZM52.5478 46.2378V54.0838H53.3478V46.2378H52.5478Z" fill="url(#paint3_linear_42_34)" mask="url(#path-5-inside-2_42_34)"/>
</g>
<defs>
<filter id="filter0_b_42_34" x="-5.45703" y="-6.29175" width="76.4551" height="79.8315" filterUnits="userSpaceOnUse" color-interpolation-filters="sRGB">
<feFlood flood-opacity="0" result="BackgroundImageFix"/>
<feGaussianBlur in="BackgroundImageFix" stdDeviation="6.5"/>
<feComposite in2="SourceAlpha" operator="in" result="effect1_backgroundBlur_42_34"/>
<feBlend mode="normal" in="SourceGraphic" in2="effect1_backgroundBlur_42_34" result="shape"/>
</filter>
<filter id="filter1_f_42_34" x="0.986328" y="0.941162" width="59.6787" height="63.1279" filterUnits="userSpaceOnUse" color-interpolation-filters="sRGB">
<feFlood flood-opacity="0" result="BackgroundImageFix"/>
<feBlend mode="normal" in="SourceGraphic" in2="BackgroundImageFix" result="shape"/>
<feGaussianBlur stdDeviation="6.5" result="effect1_foregroundBlur_42_34"/>
</filter>
<filter id="filter2_b_42_34" x="5.66016" y="1.62598" width="77.3311" height="80.3657" filterUnits="userSpaceOnUse" color-interpolation-filters="sRGB">
<feFlood flood-opacity="0" result="BackgroundImageFix"/>
<feGaussianBlur in="BackgroundImageFix" stdDeviation="7.5"/>
<feComposite in2="SourceAlpha" operator="in" result="effect1_backgroundBlur_42_34"/>
<feBlend mode="normal" in="SourceGraphic" in2="effect1_backgroundBlur_42_34" result="shape"/>
</filter>
<filter id="filter3_bd_42_34" x="16.9541" y="12.5144" width="54.7607" height="58.5688" filterUnits="userSpaceOnUse" color-interpolation-filters="sRGB">
<feFlood flood-opacity="0" result="BackgroundImageFix"/>
<feGaussianBlur in="BackgroundImageFix" stdDeviation="7.5"/>
<feComposite in2="SourceAlpha" operator="in" result="effect1_backgroundBlur_42_34"/>
<feColorMatrix in="SourceAlpha" type="matrix" values="0 0 0 0 0 0 0 0 0 0 0 0 0 0 0 0 0 0 127 0" result="hardAlpha"/>
<feOffset dx="5" dy="5"/>
<feGaussianBlur stdDeviation="5"/>
<feColorMatrix type="matrix" values="0 0 0 0 1 0 0 0 0 0.447059 0 0 0 0 0.368627 0 0 0 0.5 0"/>
<feBlend mode="normal" in2="effect1_backgroundBlur_42_34" result="effect2_dropShadow_42_34"/>
<feBlend mode="normal" in="SourceGraphic" in2="effect2_dropShadow_42_34" result="shape"/>
</filter>
<linearGradient id="paint0_linear_42_34" x1="36.7789" y1="35.8334" x2="1.47323" y2="64.5297" gradientUnits="userSpaceOnUse">
<stop stop-color="#11B5E4"/>
<stop offset="1" stop-color="#035B81"/>
</linearGradient>
<linearGradient id="paint1_linear_42_34" x1="28.8761" y1="23.2606" x2="60.0892" y2="59.4933" gradientUnits="userSpaceOnUse">
<stop stop-color="white" stop-opacity="0.25"/>
<stop offset="1" stop-color="white" stop-opacity="0"/>
</linearGradient>
<linearGradient id="paint2_linear_42_34" x1="25.5447" y1="48.7187" x2="38.4079" y2="73.4862" gradientUnits="userSpaceOnUse">
<stop stop-color="white"/>
<stop offset="1" stop-color="white" stop-opacity="0.2"/>
</linearGradient>
<linearGradient id="paint3_linear_42_34" x1="35.8957" y1="30.8427" x2="54.4913" y2="50.8043" gradientUnits="userSpaceOnUse">
<stop stop-color="white" stop-opacity="0.25"/>
<stop offset="1" stop-color="white" stop-opacity="0"/>
</linearGradient>
</defs>
</svg>

<svg width="72" height="72" fill="none" xmlns="http://www.w3.org/2000/svg"><g filter="url(#a)"><path d="M37.14 7.341 16.685 13.19c-7.454 2.13-10.546 7.844-8.549 15.796l5.476 21.802c1.997 7.952 7.352 11.25 14.806 9.12l20.455-5.848c7.454-2.131 10.526-7.839 8.53-15.791l-5.476-21.802C49.93 8.514 44.594 5.21 37.14 7.341Z" fill="url(#b)"/></g><g opacity=".5" filter="url(#c)"><path d="M47.22 35.912 43.504 20.9c-1.348-5.446-4.72-7.887-9.154-6.638l-15.017 4.23c-4.507 1.269-6.252 5.152-4.904 10.597l3.714 15.013c1.37 5.533 4.661 7.902 9.168 6.632l15.017-4.23c4.434-1.248 6.26-5.058 4.89-10.592Z" fill="#11B5E4"/></g><g filter="url(#d)"><mask id="f" maskUnits="userSpaceOnUse" x="20.66" y="16.626" width="48" height="51" fill="#000"><path fill="#fff" d="M20.66 16.626h48v51h-48z"/><path d="M54.923 17.626H33.748c-7.716 0-12.088 4.665-12.088 12.897v22.571c0 8.233 4.372 12.898 12.088 12.898h21.175c7.716 0 12.068-4.665 12.068-12.898v-22.57c0-8.233-4.352-12.898-12.068-12.898"/></mask><path d="M54.923 17.626H33.748c-7.716 0-12.088 4.665-12.088 12.897v22.571c0 8.233 4.372 12.898 12.088 12.898h21.175c7.716 0 12.068-4.665 12.068-12.898v-22.57c0-8.233-4.352-12.898-12.068-12.898" fill="#00ACDD"/><path d="M54.923 18.626a1 1 0 1 0 0-2v2Zm0-2a1 1 0 1 0 0 2v-2Zm0 0H33.748v2h21.175v-2Zm-21.175 0c-4.062 0-7.376 1.233-9.667 3.677-2.282 2.435-3.42 5.935-3.42 10.22h2c0-3.947 1.046-6.896 2.88-8.852 1.824-1.946 4.554-3.045 8.207-3.045v-2ZM20.66 30.523v22.571h2v-22.57h-2Zm0 22.571c0 4.286 1.14 7.786 3.421 10.22 2.29 2.444 5.605 3.678 9.667 3.678v-2c-3.653 0-6.383-1.1-8.208-3.046-1.833-1.956-2.88-4.904-2.88-8.852h-2Zm13.088 13.898h21.175v-2H33.748v2Zm21.175 0c4.063 0 7.372-1.234 9.658-3.679 2.277-2.435 3.41-5.935 3.41-10.219h-2c0 3.949-1.042 6.898-2.87 8.853-1.82 1.946-4.544 3.045-8.198 3.045v2Zm13.068-13.898v-22.57h-2v22.57h2Zm0-22.57c0-4.285-1.133-7.785-3.41-10.22-2.286-2.444-5.595-3.678-9.658-3.678v2c3.654 0 6.378 1.099 8.197 3.044 1.829 1.956 2.871 4.905 2.871 8.853h2Z" fill="url(#e)" mask="url(#f)"/></g><g filter="url(#g)"><mask id="j" fill="#fff"><path fill-rule="evenodd" clip-rule="evenodd" d="M44.405 27.514c-1.028 0-1.874.903-1.874 2.021v24.548c0 1.097.846 2 1.874 2 1.047 0 1.893-.903 1.893-2V29.535c0-1.118-.846-2.02-1.893-2.02Zm-10.577 7.933c-1.028 0-1.874.903-1.874 2.02v16.617c0 1.096.846 2 1.874 2 1.047 0 1.894-.904 1.894-2V37.468c0-1.118-.847-2.02-1.894-2.02Zm19.12 10.79c0-1.117.846-2.02 1.894-2.02 1.027 0 1.873.903 1.873 2.02v7.847c0 1.096-.846 1.999-1.894 1.999-1.027 0-1.873-.903-1.873-2v-7.845Z"/></mask><path fill-rule="evenodd" clip-rule="evenodd" d="M44.405 27.514c-1.028 0-1.874.903-1.874 2.021v24.548c0 1.097.846 2 1.874 2 1.047 0 1.893-.903 1.893-2V29.535c0-1.118-.846-2.02-1.893-2.02Zm-10.577 7.933c-1.028 0-1.874.903-1.874 2.02v16.617c0 1.096.846 2 1.874 2 1.047 0 1.894-.904 1.894-2V37.468c0-1.118-.847-2.02-1.894-2.02Zm19.12 10.79c0-1.117.846-2.02 1.894-2.02 1.027 0 1.873.903 1.873 2.02v7.847c0 1.096-.846 1.999-1.894 1.999-1.027 0-1.873-.903-1.873-2v-7.845Z" fill="url(#h)"/><path d="M42.931 29.535c0-.925.694-1.62 1.474-1.62v-.8c-1.275 0-2.274 1.109-2.274 2.42h.8Zm0 24.548V29.535h-.8v24.548h.8Zm1.474 1.6c-.783 0-1.474-.7-1.474-1.6h-.8c0 1.293 1.001 2.4 2.274 2.4v-.8Zm1.493-1.6c0 .898-.688 1.6-1.493 1.6v.8c1.29 0 2.294-1.104 2.294-2.4h-.8Zm0-24.548v24.548h.8V29.535h-.8Zm-1.493-1.62c.802 0 1.493.698 1.493 1.62h.8c0-1.314-1-2.42-2.293-2.42v.8Zm-12.05 9.553c0-.925.693-1.62 1.473-1.62v-.8c-1.275 0-2.274 1.109-2.274 2.42h.8Zm0 16.616V37.468h-.8v16.616h.8Zm1.473 1.6c-.783 0-1.474-.7-1.474-1.6h-.8c0 1.292 1.001 2.4 2.274 2.4v-.8Zm1.494-1.6c0 .897-.689 1.6-1.494 1.6v.8c1.29 0 2.294-1.105 2.294-2.4h-.8Zm0-16.616v16.616h.8V37.468h-.8Zm-1.494-1.62c.802 0 1.494.698 1.494 1.62h.8c0-1.314-1.002-2.42-2.294-2.42v.8Zm21.014 7.97c-1.293 0-2.294 1.106-2.294 2.42h.8c0-.922.69-1.62 1.494-1.62v-.8Zm2.273 2.42c0-1.311-.998-2.42-2.273-2.42v.8c.78 0 1.473.695 1.473 1.62h.8Zm0 7.846v-7.846h-.8v7.846h.8Zm-2.294 2.399c1.29 0 2.294-1.104 2.294-2.4h-.8c0 .898-.688 1.6-1.493 1.6v.8Zm-2.273-2.4c0 1.293 1.001 2.4 2.273 2.4v-.8c-.782 0-1.473-.699-1.473-1.6h-.8Zm0-7.845v7.846h.8v-7.846h-.8Z" fill="url(#i)" mask="url(#j)"/></g><defs><linearGradient id="b" x1="36.779" y1="35.833" x2="1.473" y2="64.53" gradientUnits="userSpaceOnUse"><stop stop-color="#11B5E4"/><stop offset="1" stop-color="#035B81"/></linearGradient><linearGradient id="e" x1="28.876" y1="23.261" x2="60.089" y2="59.493" gradientUnits="userSpaceOnUse"><stop stop-color="#fff" stop-opacity=".25"/><stop offset="1" stop-color="#fff" stop-opacity="0"/></linearGradient><linearGradient id="h" x1="25.545" y1="48.719" x2="38.408" y2="73.486" gradientUnits="userSpaceOnUse"><stop stop-color="#fff"/><stop offset="1" stop-color="#fff" stop-opacity=".2"/></linearGradient><linearGradient id="i" x1="35.896" y1="30.843" x2="54.491" y2="50.804" gradientUnits="userSpaceOnUse"><stop stop-color="#fff" stop-opacity=".25"/><stop offset="1" stop-color="#fff" stop-opacity="0"/></linearGradient><filter id="a" x="-5.457" y="-6.292" width="76.455" height="79.832" filterUnits="userSpaceOnUse" color-interpolation-filters="sRGB"><feFlood flood-opacity="0" result="BackgroundImageFix"/><feGaussianBlur in="BackgroundImageFix" stdDeviation="6.5"/><feComposite in2="SourceAlpha" operator="in" result="effect1_backgroundBlur_42_34"/><feBlend in="SourceGraphic" in2="effect1_backgroundBlur_42_34" result="shape"/></filter><filter id="c" x=".986" y=".941" width="59.679" height="63.128" filterUnits="userSpaceOnUse" color-interpolation-filters="sRGB"><feFlood flood-opacity="0" result="BackgroundImageFix"/><feBlend in="SourceGraphic" in2="BackgroundImageFix" result="shape"/><feGaussianBlur stdDeviation="6.5" result="effect1_foregroundBlur_42_34"/></filter><filter id="d" x="5.66" y="1.626" width="77.331" height="80.366" filterUnits="userSpaceOnUse" color-interpolation-filters="sRGB"><feFlood flood-opacity="0" result="BackgroundImageFix"/><feGaussianBlur in="BackgroundImageFix" stdDeviation="7.5"/><feComposite in2="SourceAlpha" operator="in" result="effect1_backgroundBlur_42_34"/><feBlend in="SourceGraphic" in2="effect1_backgroundBlur_42_34" result="shape"/></filter><filter id="g" x="16.954" y="12.514" width="54.761" height="58.569" filterUnits="userSpaceOnUse" color-interpolation-filters="sRGB"><feFlood flood-opacity="0" result="BackgroundImageFix"/><feGaussianBlur in="BackgroundImageFix" stdDeviation="7.5"/><feComposite in2="SourceAlpha" operator="in" result="effect1_backgroundBlur_42_34"/><feColorMatrix in="SourceAlpha" values="0 0 0 0 0 0 0 0 0 0 0 0 0 0 0 0 0 0 127 0" result="hardAlpha"/><feOffset dx="5" dy="5"/><feGaussianBlur stdDeviation="5"/><feColorMatrix values="0 0 0 0 1 0 0 0 0 0.447059 0 0 0 0 0.368627 0 0 0 0.5 0"/><feBlend in2="effect1_backgroundBlur_42_34" result="effect2_dropShadow_42_34"/><feBlend in="SourceGraphic" in2="effect2_dropShadow_42_34" result="shape"/></filter></defs></svg>
